X:1
T:The Captain with his Whiskers
M:4/4
L:1/4
K:C
 G, C| E2 E3/2 E/2| E2 F E| D2 D D| D2| z E/2- F| G2 G A| G/2- F3/2 E D|\
 D/2- C3/2 C C| C2| G, C| E2 E3/2 E/2| E2 F E| E/2- D3/2 D D| D2| E F|\
 G2 E F| G/2- F3/2 E D| D C C3/2 C/2| C2| A2| G/2- F3/2 F F| F2 A G|\
 G/2- E3/2 E E| E2| G F| D2 B, C| D F E D| D/2- C3/2 C3/2- C/2-| C2-|\
 G, C| E2 E E| E2 F- E| E D D D| D2| E F| G F E F| G F E D| D/2- C3/2 C3/2 C/2|\
 C2||
